X:35
T: Woodcock
C: Hammy Hamilton
Z: B.Black
R: jig
M: 6/8
L: 1/8
K: G
B | dBG cGE | DED G2 A | BGB ded | dcB A2 B |
dBG cGE | DED G2 A | B2 c ded | ABA G2 :|
B | dBG ecA | fdf g2 g | fge edc | dcB A2 B |
|1 dBG ecA | fdf g2 g | fge edc | ABA G2 :|
|2 dBG cGE | DED G2 A | B2 c ded | ABA G2 ||
